src/icons/nunjucks.svg

<svg viewBox="0 0 24 24" xmlns="http://www.w3.org/2000/svg">
  <path
    d="M11.2 21.1H8.09995L5.79995 13.2V21.1H2.69995V2.90002H5.79995L8.09995 10.3V2.90002H11.2V21.1ZM21.2999 19.2C21.2999 20.2 20.5 21.1 19.4 21.1H14.6C13.6 21.1 12.7 20.3 12.7 19.2V15.4L15.9 14.7V18H18.2V7.20002H21.2999V19.2Z"
    fill="#388E3C"
  />
</svg>

<svg
  viewBox="0 0 24 24"
  xml:space="preserve"
  xmlns="http://www.w3.org/2000/svg"
>
  <path
    d="M11.2 21.1H8.1l-2.3-7.9v7.9H2.7V2.9h3.1l2.3 7.4V2.9h3.1zm10.1-1.9c0 1-.8 1.9-1.9 1.9h-4.8c-1 0-1.9-.8-1.9-1.9v-3.8l3.2-.7V18h2.3V7.2h3.1v12z"
    fill="#388e3c"
  />
</svg>
